svg/u1f436.svg

<svg viewBox="0 0 128 128" xmlns="http://www.w3.org/2000/svg">
  <path d="M63.76,19.97c-29.09-0.75-38.51,21.77-39.23,30.22c-0.56,6.57-3.38,30.6,10.32,46.74 c7.07,8.33,18.4,12.48,30.41,12.2c12.11-0.28,23.05-2.69,30.41-12.39c12.39-16.33,11.07-40.73,9.39-48.62 C103.48,40.78,97.35,20.83,63.76,19.97z" fill="#FFEAC8"/>
  <path d="M96.82,64.43c1.03,7.81-2.36,15.26-11.29,15.79c-8.17,0.49-13.21-4.72-13.61-12.39 c-0.41-7.86,3.89-15.17,10.72-15.92C89.85,51.12,95.8,56.62,96.82,64.43z" fill="#D27856"/>
  <path d="M18.9,26.72c0,0-9.83,3.85-12.2,9.57c-3.19,7.7-1.72,22.98,0,28.91c1.69,5.82,6.19,11.83,13.14,11.64 s13.05-7.23,15.2-16.42c2.16-9.2,2.63-24.96,3.28-27.78s1.78-5.07,1.78-5.07S31.47,19.21,18.9,26.72z" fill="#D27856"/>
  <path d="M101.21,25.5c0,0,13.33,0.47,16.52,1.88s6.1,7.79,5.82,16.33s-0.84,22.35-5.16,27.12 c-3.57,3.94-10.79,4.22-14.83-0.66s-6.57-13.14-7.51-18.49c-0.94-5.35-2.53-12.29-3.57-15.39c-1.03-3.1-3.57-9.29-4.88-10.7 C86.28,24.19,88.91,22.87,101.21,25.5z" fill="#D27856"/>
  <path d="M29.97,22.31c-7.23-0.46-19.15,5.26-21.59,11.17S7.37,58.57,9.42,64.17 c2.16,5.91,6.66,13.33,14.45,6.95s9.85-22.43,10.61-27.59c0.75-5.16,1.78-11.45,2.91-12.76c1.13-1.31,2.72-3.19,2.72-3.19 S38.89,22.87,29.97,22.31z" fill="#865B51"/>
  <path d="M102.8,21.09c6.79,0.47,14.17,3,16.89,8.92c2.72,5.91,1.69,19.9,0.66,26.56s-3.47,13.61-9.57,12.86 c-6.1-0.75-9.2-9.01-11.07-16.8c-1.88-7.79-3.85-15.58-6.29-21.21c-1.47-3.4-6.57-5.91-6.57-5.91S89.1,20.15,102.8,21.09z" fill="#865B51"/>
  <path d="M50.5,67.69c-0.4,3.42-2.16,6.18-5.98,5.78c-2.71-0.29-4.53-3.52-4.13-6.95 c0.4-3.42,1.59-5.88,4.79-5.82C50.15,60.79,50.9,64.26,50.5,67.69z" fill="#2F2F2F"/>
  <path d="M89.74,66.73c0.16,3.44-1.2,6.38-5.17,6.67c-3.45,0.25-5.22-2.74-5.37-6.18 c-0.16-3.44,1.55-6.2,4.84-6.61C88.31,60.06,89.58,63.29,89.74,66.73z" fill="#2F2F2F"/>
  <path d="M75.12,84.07c0.16,3.44-2.16,6.66-9.39,6.57c-7.04-0.09-9.6-2.94-9.76-6.38 c-0.16-3.44,3.84-6.53,9.57-6.66C73.43,77.4,74.96,80.62,75.12,84.07z" fill="#2F2F2F"/>
  <path d="M59.16,97.96c0,0,0.85,8.17,1.69,10.61c1.78,5.16,9.28,4.3,10.61-0.56 c1.13-4.13,0.38-11.26,0.38-11.26l-6.66-0.94L59.16,97.96z" fill="#E94B8C"/>
  <path d="M65.96,100.68c-1.17,0.05-1.13,1.13-1.13,3.61c0,2.49,0.14,3.99,1.27,3.94 c1.13-0.05,0.99-1.97,0.99-3.75S67.18,100.63,65.96,100.68z" fill="#EF87B2"/>
  <path d="M50.15,90.21c-1.35,1.99,1.27,3.75,3.43,5.21c2.16,1.45,4.78,3.66,7.88,3.61 c3.47-0.05,4.41-2.39,4.41-2.39s1.13,2.77,6.05,2.25c2.63-0.28,5.87-3.23,6.85-3.89c1.88-1.27,4.13-2.86,3.14-4.18 c-1.13-1.51-3.52,0.52-5.96,1.78c-2.44,1.27-3.28,1.88-5.11,1.88s-3.1-0.75-3.19-3.8c-0.08-2.49-0.05-2.96-0.05-2.96h-4.18 c0,0,0.14,2.63,0.14,3.38c0,1.97-1.03,2.82-3,2.91c-1.97,0.09-4.08-1.55-5.12-2.16C54.42,91.25,51.23,88.62,50.15,90.21z" fill="#2F2F30"/>
</svg>

<svg viewBox="0 0 128 128" xmlns="http://www.w3.org/2000/svg">
  <defs/>
  <path d="M63.76,19.97 C34.67,19.22 25.25,41.74 24.53,50.19 C23.97,56.76 21.15,80.79 34.85,96.93 C41.92,105.26 53.25,109.41 65.26,109.13 C77.37,108.85 88.31,106.44 95.67,96.74 C108.06,80.41 106.74,56.01 105.06,48.12 C103.48,40.78 97.35,20.83 63.76,19.97 Z" fill="#FFEAC8"/>
  <path d="M96.82,64.43 C97.85,72.24 94.46,79.69 85.53,80.22 C77.36,80.71 72.32,75.5 71.92,67.83 C71.51,59.97 75.81,52.66 82.64,51.91 C89.85,51.12 95.8,56.62 96.82,64.43 Z" fill="#D27856"/>
  <path d="M18.9,26.72 C18.9,26.72 9.07,30.57 6.7,36.29 C3.51,43.99 4.98,59.27 6.7,65.2 C8.39,71.02 12.89,77.03 19.84,76.84 C26.79,76.65 32.89,69.61 35.04,60.42 C37.2,51.22 37.67,35.46 38.32,32.64 C38.97,29.82 40.1,27.57 40.1,27.57 C40.1,27.57 31.47,19.21 18.9,26.72 Z" fill="#D27856"/>
  <path d="M101.21,25.5 C101.21,25.5 114.54,25.97 117.73,27.38 C120.92,28.79 123.83,35.17 123.55,43.71 C123.27,52.25 122.71,66.06 118.39,70.83 C114.82,74.77 107.6,75.05 103.56,70.17 C99.52,65.29 96.99,57.03 96.05,51.68 C95.11,46.33 93.52,39.39 92.48,36.29 C91.45,33.19 88.91,27 87.6,25.59 C86.28,24.19 88.91,22.87 101.21,25.5 Z" fill="#D27856"/>
  <path d="M29.97,22.31 C22.74,21.85 10.82,27.57 8.38,33.48 C5.94,39.39 7.37,58.57 9.42,64.17 C11.58,70.08 16.08,77.5 23.87,71.12 C31.66,64.74 33.72,48.69 34.48,43.53 C35.23,38.37 36.26,32.08 37.39,30.77 C38.52,29.46 40.11,27.58 40.11,27.58 C40.11,27.58 38.89,22.87 29.97,22.31 Z" fill="#865B51"/>
  <path d="M102.8,21.09 C109.59,21.56 116.97,24.09 119.69,30.01 C122.41,35.92 121.38,49.91 120.35,56.57 C119.32,63.23 116.88,70.18 110.78,69.43 C104.68,68.68 101.58,60.42 99.71,52.63 C97.83,44.84 95.86,37.05 93.42,31.42 C91.95,28.02 86.85,25.51 86.85,25.51 C86.85,25.51 89.1,20.15 102.8,21.09 Z" fill="#865B51"/>
  <path d="M50.5,67.69 C50.1,71.11 48.34,73.87 44.52,73.47 C41.81,73.18 39.99,69.95 40.39,66.52 C40.79,63.1 41.98,60.64 45.18,60.7 C50.15,60.79 50.9,64.26 50.5,67.69 Z" fill="#2F2F2F"/>
  <path d="M89.74,66.73 C89.9,70.17 88.54,73.11 84.57,73.4 C81.12,73.65 79.35,70.66 79.2,67.22 C79.04,63.78 80.75,61.02 84.04,60.61 C88.31,60.06 89.58,63.29 89.74,66.73 Z" fill="#2F2F2F"/>
  <path d="M75.12,84.07 C75.28,87.51 72.96,90.73 65.73,90.64 C58.69,90.55 56.13,87.7 55.97,84.26 C55.81,80.82 59.81,77.73 65.54,77.6 C73.43,77.4 74.96,80.62 75.12,84.07 Z" fill="#2F2F2F"/>
  <path d="M59.16,97.96 C59.16,97.96 60.01,106.13 60.85,108.57 C62.63,113.73 70.13,112.87 71.46,108.01 C72.59,103.88 71.84,96.75 71.84,96.75 L65.18,95.81 L59.16,97.96 Z" fill="#E94B8C"/>
  <path d="M65.96,100.68 C64.79,100.73 64.83,101.81 64.83,104.29 C64.83,106.78 64.97,108.28 66.1,108.23 C67.23,108.18 67.09,106.26 67.09,104.48 C67.09,102.7 67.18,100.63 65.96,100.68 Z" fill="#EF87B2"/>
  <path d="M50.15,90.21 C48.8,92.2 51.42,93.96 53.58,95.42 C55.74,96.87 58.36,99.08 61.46,99.03 C64.93,98.98 65.87,96.64 65.87,96.64 C65.87,96.64 67,99.41 71.92,98.89 C74.55,98.61 77.79,95.66 78.77,95 C80.65,93.73 82.9,92.14 81.91,90.82 C80.78,89.31 78.39,91.34 75.95,92.6 C73.51,93.87 72.67,94.48 70.84,94.48 C69.01,94.48 67.74,93.73 67.65,90.68 C67.57,88.19 67.6,87.72 67.6,87.72 L63.42,87.72 C63.42,87.72 63.56,90.35 63.56,91.1 C63.56,93.07 62.53,93.92 60.56,94.01 C58.59,94.1 56.48,92.46 55.44,91.85 C54.42,91.25 51.23,88.62 50.15,90.21 Z" fill="#2F2F30"/>
</svg>
